X: 1
T: Empty Town
T: (From Deltarune)
R: waltz
M: 3/4
L: 1/8
K: Em
||:"Em"E4 GB | g4 f2 |"D6"d4 A2 | B6 |"Cmaj7"B4 cd | c4 B2 |"Bm7"A4 G2 | B6 |
"Am9"E4 GB | g4 f2 |"G"d4 A2 | B6 |"Fmaj7b5"B4 cd | "Fmaj7"c4 B2 |"B7(sus4)"A4 G2 |"B7" B6 :||
||:"Em" z2 fg fe | B2 G2 B2 |"D6" z2 fg fe | a6 | "Cmaj7" z2 fg fe | f4 g2 |"G" d2 dc Bc | B6 |
"Fmaj7b5"z2 Bc BA |"Fmaj7" =F2 C2 c2 |"Em" B3 A GA | B4 G2 | "F#7(b9)" ^A2 F2 E2 |"F#7"  ^A,4 ^A2 | "B7(sus4)" B6-|B6:||
